X:1
T:The Long Acre
R:hornpipe
M:4/4
L:1/8
K:D
FE|:D2dB AGFE|DFdF ~A2FE|D2dB AGFD|GABG ~E2FE|
|D2dB AGFE|DFdF ~A2Bc|dBBA BGAF|1 GABG ~E2FE:|2 GABG E3e|]
|fgaf ~d2de|fgaf dcAd|fgaf dcdA|(3Bcd ef ~g2ag|
|fgaf ~d2de|fgaf ~g2fg|gffe fdAF|GABG E3e|
|fgaf ~d2de|fgaf dcAd|fgaf dcdA|(3Bcd ef ~g2ag|
|fgaf ~d2de|fgaf ~g2fg|gffe faec|dBAF ~G2FE|